!!!SOCIAL_FUNCTION:	social gatherings
!!!PDT:	1939
!!!OTL: No__85_"Do_Not_Go_Away".krn
!!!LANG: Non-Tone
!!!LING_GROUP: Wakashan
!!!REG: Pacific Northwest
**kern
*staff1
=1-
*clefF4
*k[b-e-a-]
*M3/4
4r
8r
8f\
8f\L
16g\L
16f\JJ
=2
4.e-\
16f\LL
16f\JJ
8e-\L
16f\L
16e-\JJ
=3||
*M2/4
8c\L
8B-\J
16c\LL
16B-\
16.G\
32e-\JJk
=4
6e-\
6e-\
6e-\
=5
4.B-\
16c\LL
16B-\JJ
=6
8G\L
8G\J
4E-\
=7
16B-\LL
16G\J
[8G\J
4G\]
=8
4E-\
4E-\
=9
2E-\
==
*-
